Numix/categories/48/applications-puzzles.svg

<svg width="47.5" xmlns="http://www.w3.org/2000/svg" height="47.5" viewBox="0 0 38 38" xmlns:xlink="http://www.w3.org/1999/xlink">
<path style="fill:#61c66c;fill-rule:evenodd;stroke:#61c66c;stroke-linejoin:round;stroke-width:12.5" d="M 234.919911 36.60204 C 219.746101 37.177008 202.705483 42.255888 193.61077 53.180273 C 180.351637 81.353688 212.518199 68.369002 216.299684 87.869987 C 220.08117 107.370973 197.392256 108.472994 197.392256 108.472994 L 99.648032 108.472994 C 99.648032 108.472994 99.743766 205.402955 99.743766 205.402955 C 99.743766 205.402955 100.844704 228.114176 120.326536 224.328973 C 136.218349 221.262478 130.570054 199.413708 143.01545 198.455429 C 145.887464 198.263773 149.764683 199.126225 155.030043 201.617751 C 165.943698 210.721405 171.01759 227.778778 171.591993 242.967507 C 171.783461 248.573441 171.304792 253.843978 170.347453 258.491633 C 170.299587 258.683289 170.299587 258.874945 170.25172 259.114514 C 168.576378 272.195028 163.502486 285.515112 154.264173 293.181347 C 126.070564 306.405602 139.090363 274.303243 119.608532 270.518039 C 105.392061 267.739029 100.988305 278.998812 99.648032 285.323456 L 99.648032 388.242662 C 99.648032 388.242662 197.727324 387.428125 197.727324 387.428125 C 197.727324 387.428125 220.416238 386.374017 216.634753 366.825118 C 212.853267 347.324132 180.734572 360.356732 193.945839 332.135404 C 203.040551 321.258933 220.08117 316.132138 235.302846 315.605084 C 240.903274 315.365515 246.168634 315.892568 250.763857 316.850848 C 251.003192 316.850848 251.194659 316.898762 251.386127 316.946676 C 264.50166 318.623665 277.856527 323.702545 285.515232 332.902027 C 298.774365 361.075442 266.607803 348.090756 262.826318 367.591741 C 259.044832 387.092727 281.733746 388.194748 281.733746 388.194748 L 378.951434 388.194748 L 378.951434 286.137993 C 380.339575 279.765435 384.74333 268.649394 398.864068 271.428405 C 418.393766 275.165694 405.373967 307.315968 433.567575 294.091712 C 442.758021 286.425477 447.831913 273.105393 449.555122 259.976966 C 449.555122 259.78531 449.602989 259.593654 449.602989 259.354084 C 450.608194 254.754343 451.086863 249.483807 450.895395 243.877872 C 450.320993 228.689144 445.199234 211.631771 434.333446 202.528116 C 406.139837 189.303861 419.159636 221.454134 399.629938 225.239338 C 380.10024 228.976628 379.047168 206.31332 379.047168 206.31332 L 378.951434 108.472994 L 276.803455 108.472994 C 270.389289 106.987661 259.810703 102.483748 262.491249 88.636611 C 266.272735 69.087711 298.39143 82.120311 285.180163 53.946897 C 277.473591 44.747415 264.166591 39.668534 251.051059 37.991545 C 250.859591 37.943631 250.620257 37.895717 250.428789 37.895717 C 245.833566 36.889524 240.568206 36.410384 234.919911 36.60204 Z " transform="matrix(.08161 0 0 .08153 -3.46396 1.68394)"/>
</svg>

<svg xmlns="http://www.w3.org/2000/svg" viewBox="0 0 256 256" xmlns:xlink="http://www.w3.org/1999/xlink">
<g style="fill:#61c66d;stroke:#61c66d" transform="matrix(.54977 0 0 .54923 -23.33613 11.34443)">
<path style="fill-rule:evenodd;stroke-linejoin:round;stroke-width:12.5" d="m 234.9375,36.625 c -15.19943,0.55954 -32.24863,5.653309 -41.34375,16.5625 -13.22926,28.187737 18.90771,15.172913 22.6875,34.6875 3.77978,19.51459 -18.90625,20.59375 -18.90625,20.59375 l 0,0 -97.75,0 c 0,0 0.125,96.93752 0.125,96.9375 0,0 1.07917,22.68603 20.59375,18.90625 15.85561,-3.07108 10.23276,-24.87804 22.6875,-25.84375 2.87418,-0.22286 6.7148,0.67577 12,3.15625 10.90919,9.09512 16.00296,26.14432 16.5625,41.34375 0.20656,5.61095 -0.2833,10.88794 -1.25,15.5 -0.0248,0.20468 -0.0673,0.42017 -0.0937,0.625 -1.69391,13.11441 -6.7618,26.41779 -15.96875,34.09375 -28.18774,13.22928 -15.17291,-18.90772 -34.6875,-22.6875 -14.2182,-2.75394 -18.61045,8.47833 -19.96875,14.8125 l 0,102.90625 c 0,0 98.09377,-0.78125 98.09375,-0.78125 0,0 22.68603,-1.07919 18.90625,-20.59375 -3.77979,-19.51459 -35.88551,-6.49979 -22.65625,-34.6875 9.09512,-10.90921 26.11307,-16.00296 41.3125,-16.5625 5.61095,-0.20657 10.88795,0.28329 15.5,1.25 0.20468,0.0248 0.42017,0.0673 0.625,0.0937 13.11441,1.69391 26.44907,6.76178 34.125,15.96875 13.22928,28.18774 -18.90772,15.17291 -22.6875,34.6875 -3.77979,19.51459 18.90625,20.59375 18.90625,20.59375 l 97.1875,0.0312 0,-102.09375 c 1.38641,-6.35211 5.80273,-17.45651 19.9375,-14.71875 19.51459,3.77978 6.49976,35.91678 34.6875,22.6875 9.20694,-7.67593 14.27484,-21.01059 15.96875,-34.125 0.0265,-0.20483 0.0689,-0.38907 0.0937,-0.59375 0.96667,-4.61206 1.45657,-9.88905 1.25,-15.5 -0.55954,-15.19943 -5.65329,-32.24863 -16.5625,-41.34375 -28.18774,-13.22926 -15.17291,18.90771 -34.6875,22.6875 -19.51459,3.7798 -20.59375,-18.90625 -20.59375,-18.90625 l -0.0937,-97.84375 -102.15625,0 C 270.37567,106.98681 259.81702,102.47687 262.5,88.625 c 3.77978,-19.514587 35.88553,-6.499763 22.65625,-34.6875 -7.67596,-9.20694 -20.97934,-14.27483 -34.09375,-15.96875 -0.20483,-0.02645 -0.42032,-0.06894 -0.625,-0.09375 -4.61205,-0.966702 -9.88905,-1.456558 -15.5,-1.25 z"/>
</g>
</svg>
